static/icons/warn.svg

<svg xmlns="http://www.w3.org/2000/svg" xmlns:xlink="http://www.w3.org/1999/xlink" width="24" height="24">
    <defs>
        <path id="a" d="M12.82 13.68v-3.36h-1.64v3.36h1.64zm0 3.32v-1.68h-1.64V17h1.64zm-10 2.5L12 3.68l9.18 15.82H2.82z"/>
    </defs>
    <use fill-rule="evenodd" xlink:href="#a"/>
</svg>

<svg xmlns="http://www.w3.org/2000/svg" xmlns:xlink="http://www.w3.org/1999/xlink" width="24" height="24" viewBox="0 0 24 24">
  <defs>
    <path id="a" d="M12.82,13.68 L12.82,10.32 L11.18,10.32 L11.18,13.68 L12.82,13.68 Z M12.82,17 L12.82,15.32 L11.18,15.32 L11.18,17 L12.82,17 Z M2.82,19.5 L12,3.68 L21.18,19.5 L2.82,19.5 Z"/>
  </defs>
  <g fill-rule="evenodd">
    <use xlink:href="#a"/>
  </g>
</svg>
